!!!COM: Bach, Johann Sebastian
!!!OTL: 19. Ich hab' mein' Sach' Gott heimgestellt
!!!ONM: No. 19
!!!OCL: Erk
!!!SCA: BWV 351
!!!YOE: Riemenschneider, Albert
!!!OPR: 371 Harmonized Chorales and 69 Chorale Melodies with Figured Bass
!!!OPT: Bach Chorale Harmonizations
**harm	**root	**kern	**kern	**kern	**kern
!	!	!bass	!tenor	!alto	!sprno
*Iorgan	*Iorgan	*Iorgan	*Iorgan	*Iorgan	*Iorgan
*k[b-]	*k[b-]	*k[b-]	*k[b-]	*k[b-]	*k[b-]
*g:	*g:	*g:	*g:	*g:	*g:
*met(c)	*met(c)	*met(c)	*met(c)	*met(c)	*met(c)
*M4/4	*M4/4	*M4/4	*M4/4	*M4/4	*M4/4
*MM60	*MM60	*MM60	*MM60	*MM60	*MM60
i	4GG	4G	4B-	4d	4g
=1	=1	=1	=1	=1	=1
i	4GG	8G	8B-	4d	4g
.	.	8F	8A	.	.
vii/V	4CC#	4E-	4G	8d	4g
.	.	.	.	8c#	.
V	4DD	8D	4A	4d	4f#
.	.	8Cn	.	.	.
ib	4GG	8BB-	4d	8g	4b-
.	.	8GG	.	8fn	.
=2	=2	=2	=2	=2	=2
iib	4AA	4C	4c	8e-	4a
.	.	.	.	8d	.
viioD7/V	4CC#	4C#	8B-	4en	4g
.	.	.	8A	.	.
V;	4DD;	4D;	4A;	4d;	4f#;
V	4DD	8D	4A	4d	4f#
.	.	[8E-	.	.	.
=3	=3	=3	=3	=3	=3
V7	4DD	8E-]	4A	4c	4f#
.	.	[8D	.	.	.
V	4DD	8D]	4A	4d	4f#
.	.	[8Cn	.	.	.
Ib	4GG	8C]	4G	4d	4g
.	.	8BBn	.	.	.
IV	4CC	8C	4G	4c	4e
.	.	8BB-	.	.	.
=4	=4	=4	=4	=4	=4
viioD7b	4FF#	4AA	8A	8c	4f#
.	.	.	8c	8e-	.
V7	4DD	4D	8c	4d	4f#
.	.	.	16B-	.	.
.	.	.	16A	.	.
I;	4GG;	4GG;	4B-;	4d;	4g;
-VII	4FF	4F	4c	4fn	4a
=5	=5	=5	=5	=5	=5
!!linebreak: 2
-VII	4FF	8F	4c	4f	4a
.	.	8G	.	.	.
IVb	4CC	8F	4c	4g	4cc
.	.	8En	.	.	.
-VII	4FF	8F	4c	4f	4a
.	.	[8E-	.	.	.
IIIb	4BB-	8E-]	4B-	4f	4f
.	.	8D	.	.	.
=6	=6	=6	=6	=6	=6
VI	4EE-	8E-	4B-	8e-	4g
.	.	8En	.	8d	.
-VII	8FF	8F	8A	8c	4a
viioD7	8FF#	8F#	8c	8e-	.
i;	4GG;	4G;	4B-;	4d;	4b-;
i	4GG	4GG	4d	[4g	4b-
=7	=7	=7	=7	=7	=7
V	4DD	4D	4.d	8g]	4a
.	.	.	.	8f#	.
ivb	4CC	4E-	.	8g	4g
.	.	.	8c	8G	.
V;	4DD;	4D;	4A;	4d;	4f#;
V	4DD	4D	4A	4d	4f#
=8	=8	=8	=8	=8	=8
viib	4FF#	8AA	4A	8c	4f#
.	.	8BB-	.	8d	.
viioD7c	4FF#	4C	4A	8e-	4f#
.	.	.	.	8d	.
ib	4GG	8BB-	[4G	4d	4g
.	.	8BBn	.	.	.
IV	8CC	8C	16G]	4en	4en
.	.	.	16A	.	.
viioD7/V	8CC#	8C#	8B-y	.	.
=9	=9	=9	=9	=9	=9
V	4DD	4D	8A	4d	4f#
.	.	.	8G	.	.
V	4DD	4DD	16A	4d	4f#
.	.	.	16B-	.	.
.	.	.	8cn	.	.
I;	4GG;	4GG;	8c	4d;	4g;
.	.	.	8Bn;	.	.
==	==	==	==	==	==
*-	*-	*-	*-	*-	*-
!!!CDT: 1685/3//-1750/7/28
!!!OCY: Deutschland
!!!AGN: chorale
!!!AST: Baroque
!!!AIN: vox
!!!YOY: 1941
!!!PPP: New York; London
!!!PPR: G. Schirmer
!!!ENC: David Huron
!!!EED: David Huron
!!!YEN: United States of America
!!!YER: 1992
!!!YEC: Copyright 1992 David Huron
!!!YEM: Rights to all derivative electronic formats reserved.
!!!YER: March 20, 1996
!!!AMT: simple quadruple
!!!EEV: 1.1
!!chor2scor: -l 2 -s 0.6 -o %b.pmx
